X:41
M:6/8
L:1/8
K:Bb
|: f2f f2g | _agf edc | e2e e2f | gfe dcB | BFB dBd | fdf bfe | dcB F>BA | B3 B,3 :|

